static/img/showcase/arcmind_logo.svg

<svg width="955" height="158" viewBox="0 0 955 158" fill="none" xmlns="http://www.w3.org/2000/svg">
<path d="M63.4565 116.989C54.3088 116.989 49.7349 110.628 49.7349 97.9072C49.7349 89.6171 52.1648 80.9696 57.0245 71.9648C64.457 58.5291 73.6048 51.8112 84.4677 51.8112C87.3264 51.8112 89.5418 52.6688 91.1141 54.384C92.8293 55.9563 93.6869 57.3856 93.6869 58.672C93.6869 59.9584 93.2581 60.816 92.4005 61.2448C91.5429 61.6736 90.6853 61.888 89.8277 61.888C89.113 61.7451 88.7557 61.3877 88.7557 60.816C88.7557 58.3861 87.3264 57.1712 84.4677 57.1712C78.6074 57.1712 73.2474 61.888 68.3877 71.3216C63.385 81.3269 60.8837 90.2603 60.8837 98.1216C60.8837 105.983 62.0986 110.485 64.5285 111.629C67.3872 111.629 70.7461 108.77 74.6053 103.053C80.3226 94.7627 84.6106 87.616 87.4693 81.6128L95.1877 65.7472C96.1882 63.3173 97.0458 61.9595 97.7605 61.6736C98.6181 61.2448 99.4042 61.0304 100.119 61.0304C101.691 61.0304 102.763 62.0309 103.335 64.032C104.05 66.0331 104.05 68.8917 103.335 72.608C102.62 76.1813 102.048 79.04 101.62 81.184C101.191 83.328 100.691 86.3296 100.119 90.1888C99.5472 94.048 99.2613 97.1211 99.2613 99.408C99.2613 101.552 99.4042 103.839 99.6901 106.269C100.262 110.986 102.477 113.344 106.336 113.344C115.627 113.344 122.988 106.126 128.42 91.6896C130.85 85.2576 132.064 78.4683 132.064 71.3216C132.064 64.1749 130.278 56.6709 126.704 48.8096C120.13 34.5163 106.408 27.3696 85.5397 27.3696C64.8144 27.3696 48.3056 36.0171 36.0133 53.312C26.8656 66.4619 22.2917 81.1125 22.2917 97.264C22.2917 116.131 27.8661 130.067 39.0149 139.072C45.5898 144.361 53.5941 147.005 63.0277 147.005C73.176 147.005 80.9658 144.861 86.3973 140.573C90.9712 136.714 93.7584 133.355 94.7589 130.496L95.4021 128.566L98.8325 128.781C98.2608 131.068 97.0458 133.641 95.1877 136.499C93.3296 139.358 91.1141 141.788 88.5413 143.789C86.1114 145.79 82.4666 147.577 77.6069 149.149C72.8901 150.864 67.4586 151.722 61.3125 151.722C41.1589 151.722 26.8656 144.075 18.4325 128.781C13.8586 120.491 11.5717 112.272 11.5717 104.125C11.5717 95.9776 12.5008 88.4021 14.3589 81.3984C19.3616 62.8171 29.2954 48.0235 44.1605 37.0176C57.1674 27.584 72.2469 22.8672 89.3989 22.8672C111.839 22.8672 126.704 31.0144 133.994 47.3088C136.853 53.7408 138.282 60.4587 138.282 67.4624C138.282 74.3232 137.067 81.3984 134.637 88.688C130.349 101.552 123.989 110.271 115.556 114.845C112.411 116.56 109.195 117.418 105.908 117.418C94.7589 117.418 89.1845 110.7 89.1845 97.264C89.1845 94.2624 89.4704 90.9749 90.0421 87.4016C79.1792 107.126 70.3173 116.989 63.4565 116.989Z" fill="url(#paint0_linear_1_892)"/>
<path d="M213.372 112.585H178.526L172.94 129.077H149.133L182.915 35.7111H209.249L243.031 129.077H218.958L213.372 112.585ZM207.52 95.0291L195.949 60.8481L184.511 95.0291H207.52ZM280.046 67.2321C282.706 63.1535 286.031 59.9615 290.021 57.6561C294.011 55.2621 298.444 54.0651 303.321 54.0651V78.1381H297.07C291.395 78.1381 287.139 79.3795 284.302 81.8621C281.464 84.2561 280.046 88.5121 280.046 94.6301V129.077H257.303V54.8631H280.046V67.2321ZM313.659 91.9701C313.659 84.2561 315.211 77.5175 318.314 71.7541C321.506 65.9908 325.895 61.5575 331.481 58.4541C337.156 55.3508 343.629 53.7991 350.899 53.7991C360.209 53.7991 367.968 56.2375 374.174 61.1141C380.47 65.9908 384.593 72.8625 386.543 81.7291H362.337C360.298 76.0545 356.352 73.2171 350.5 73.2171C346.333 73.2171 343.008 74.8575 340.525 78.1381C338.043 81.3301 336.801 85.9408 336.801 91.9701C336.801 97.9995 338.043 102.654 340.525 105.935C343.008 109.127 346.333 110.723 350.5 110.723C356.352 110.723 360.298 107.886 362.337 102.211H386.543C384.593 110.9 380.47 117.728 374.174 122.693C367.879 127.658 360.121 130.141 350.899 130.141C343.629 130.141 337.156 128.589 331.481 125.486C325.895 122.383 321.506 117.949 318.314 112.186C315.211 106.423 313.659 99.6841 313.659 91.9701ZM508.434 35.7111V129.077H485.691V73.0841L464.81 129.077H446.456L425.442 72.9511V129.077H402.699V35.7111H429.565L455.766 100.349L481.701 35.7111H508.434ZM540.217 47.1491C536.227 47.1491 532.946 45.9965 530.375 43.6911C527.892 41.2971 526.651 38.3711 526.651 34.9131C526.651 31.3665 527.892 28.4405 530.375 26.1351C532.946 23.7411 536.227 22.5441 540.217 22.5441C544.118 22.5441 547.31 23.7411 549.793 26.1351C552.364 28.4405 553.65 31.3665 553.65 34.9131C553.65 38.3711 552.364 41.2971 549.793 43.6911C547.31 45.9965 544.118 47.1491 540.217 47.1491ZM551.522 54.8631V129.077H528.779V54.8631H551.522ZM617.213 54.0651C625.902 54.0651 632.818 56.9025 637.961 62.5771C643.192 68.1631 645.808 75.8771 645.808 85.7191V129.077H623.198V88.7781C623.198 83.8128 621.912 79.9558 619.341 77.2071C616.77 74.4585 613.312 73.0841 608.967 73.0841C604.622 73.0841 601.164 74.4585 598.593 77.2071C596.022 79.9558 594.736 83.8128 594.736 88.7781V129.077H571.993V54.8631H594.736V64.7051C597.041 61.4245 600.145 58.8531 604.046 56.9911C607.947 55.0405 612.336 54.0651 617.213 54.0651ZM661.08 91.8371C661.08 84.2118 662.499 77.5175 665.336 71.7541C668.262 65.9908 672.208 61.5575 677.173 58.4541C682.139 55.3508 687.68 53.7991 693.798 53.7991C698.675 53.7991 703.108 54.8188 707.098 56.8581C711.177 58.8975 714.369 61.6461 716.674 65.1041V30.6571H739.417V129.077H716.674V118.437C714.546 121.984 711.487 124.821 707.497 126.949C703.596 129.077 699.03 130.141 693.798 130.141C687.68 130.141 682.139 128.589 677.173 125.486C672.208 122.294 668.262 117.816 665.336 112.053C662.499 106.201 661.08 99.4625 661.08 91.8371ZM716.674 91.9701C716.674 86.2955 715.078 81.8178 711.886 78.5371C708.783 75.2565 704.97 73.6161 700.448 73.6161C695.926 73.6161 692.069 75.2565 688.877 78.5371C685.774 81.7291 684.222 86.1625 684.222 91.8371C684.222 97.5118 685.774 102.034 688.877 105.403C692.069 108.684 695.926 110.324 700.448 110.324C704.97 110.324 708.783 108.684 711.886 105.403C715.078 102.122 716.674 97.6448 716.674 91.9701ZM850.156 112.585H815.31L809.724 129.077H785.917L819.699 35.7111H846.033L879.815 129.077H855.742L850.156 112.585ZM844.304 95.0291L832.733 60.8481L821.295 95.0291H844.304ZM916.83 35.7111V129.077H894.087V35.7111H916.83Z" fill="url(#paint1_linear_1_892)"/>
<defs>
<linearGradient id="paint0_linear_1_892" x1="22.8227" y1="119.822" x2="107.559" y2="-3.94184" gradientUnits="userSpaceOnUse">
<stop stop-color="#F72382"/>
<stop offset="1" stop-color="#42BAF9"/>
</linearGradient>
<linearGradient id="paint1_linear_1_892" x1="256.239" y1="134.918" x2="285.353" y2="-56.1061" gradientUnits="userSpaceOnUse">
<stop stop-color="#F72382"/>
<stop offset="1" stop-color="#42BAF9"/>
</linearGradient>
</defs>
</svg>

<svg fill="none" height="158" viewBox="0 0 955 158" width="955" xmlns="http://www.w3.org/2000/svg" xmlns:xlink="http://www.w3.org/1999/xlink"><linearGradient id="a"><stop offset="0" stop-color="#f72382"/><stop offset="1" stop-color="#42baf9"/></linearGradient><linearGradient id="b" gradientUnits="userSpaceOnUse" x1="22.823" x2="107.559" xlink:href="#a" y1="119.822" y2="-3.942"/><linearGradient id="c" gradientUnits="userSpaceOnUse" x1="256.239" x2="285.353" xlink:href="#a" y1="134.918" y2="-56.106"/><path d="m63.456 116.989c-9.147 0-13.721-6.361-13.721-19.082 0-8.29 2.43-16.937 7.29-25.942 7.432-13.436 16.58-20.154 27.443-20.154 2.858 0 5.074.858 6.646 2.573 1.715 1.572 2.573 3.002 2.573 4.288s-.429 2.144-1.287 2.573c-.857.429-1.715.643-2.572.643-.715-.143-1.072-.5-1.072-1.072 0-2.43-1.43-3.645-4.288-3.645-5.86 0-11.22 4.717-16.08 14.15-5.003 10.006-7.504 18.94-7.504 26.8 0 7.862 1.215 12.364 3.644 13.508 2.86 0 6.218-2.859 10.077-8.576 5.718-8.29 10.006-15.437 12.864-21.44l7.719-15.866c1-2.43 1.858-3.788 2.572-4.073.858-.43 1.644-.644 2.359-.644 1.572 0 2.644 1 3.216 3.002.715 2.001.715 4.86 0 8.576l-1.715 8.576c-.429 2.144-.929 5.146-1.501 9.005s-.858 6.932-.858 9.219c0 2.144.143 4.431.43 6.861.571 4.717 2.786 7.075 6.645 7.075 9.291 0 16.652-7.218 22.084-21.654 2.43-6.432 3.644-13.222 3.644-20.368 0-7.147-1.786-14.651-5.36-22.512-6.574-14.294-20.296-21.44-41.164-21.44-20.726 0-37.234 8.647-49.527 25.942-9.147 13.15-13.721 27.8-13.721 43.952 0 18.867 5.574 32.803 16.723 41.808 6.575 5.289 14.58 7.933 24.013 7.933 10.148 0 17.938-2.144 23.37-6.432 4.573-3.859 7.36-7.218 8.36-10.077l.644-1.93 3.43.215c-.571 2.287-1.786 4.86-3.644 7.718-1.858 2.859-4.074 5.289-6.647 7.29-2.43 2.001-6.074 3.788-10.934 5.36-4.717 1.715-10.148 2.573-16.294 2.573-20.154 0-34.447-7.647-42.88-22.941-4.574-8.29-6.861-16.509-6.861-24.656s.929-15.723 2.787-22.727c5.003-18.58 14.936-33.374 29.802-44.38 13.006-9.434 28.086-14.15 45.238-14.15 22.44 0 37.305 8.146 44.595 24.44 2.859 6.433 4.288 13.15 4.288 20.154 0 6.861-1.215 13.936-3.645 21.226-4.288 12.864-10.648 21.583-19.081 26.157-3.145 1.715-6.361 2.573-9.648 2.573-11.15 0-16.724-6.718-16.724-20.154 0-3.002.286-6.29.858-9.862-10.863 19.724-19.725 29.587-26.586 29.587z" fill="url(#b)"/><path d="m213.372 112.585h-34.846l-5.586 16.492h-23.807l33.782-93.366h26.334l33.782 93.366h-24.073zm-5.852-17.556-11.571-34.18-11.438 34.18zm72.526-27.797c2.66-4.078 5.985-7.27 9.975-9.576 3.99-2.394 8.423-3.59 13.3-3.59v24.072h-6.251c-5.675 0-9.931 1.241-12.768 3.724-2.838 2.394-4.256 6.65-4.256 12.768v34.447h-22.743v-74.214h22.743v12.37zm33.613 24.738c0-7.714 1.552-14.453 4.655-20.216 3.192-5.763 7.581-10.197 13.167-13.3 5.675-3.103 12.148-4.655 19.418-4.655 9.31 0 17.069 2.438 23.275 7.315 6.296 4.877 10.419 11.748 12.369 20.615h-24.206c-2.039-5.674-5.985-8.512-11.837-8.512-4.167 0-7.492 1.64-9.975 4.921-2.482 3.192-3.724 7.803-3.724 13.832 0 6.03 1.242 10.684 3.724 13.965 2.483 3.192 5.808 4.788 9.975 4.788 5.852 0 9.798-2.837 11.837-8.512h24.206c-1.95 8.689-6.073 15.517-12.369 20.482-6.295 4.965-14.053 7.448-23.275 7.448-7.27 0-13.743-1.552-19.418-4.655-5.586-3.103-9.975-7.537-13.167-13.3-3.103-5.763-4.655-12.502-4.655-20.216zm194.775-56.259v93.366h-22.743v-55.993l-20.881 55.993h-18.354l-21.014-56.126v56.126h-22.743v-93.366h26.866l26.201 64.638 25.935-64.638zm31.783 11.438c-3.99 0-7.271-1.153-9.842-3.458-2.483-2.394-3.724-5.32-3.724-8.778 0-3.546 1.241-6.472 3.724-8.778 2.571-2.394 5.852-3.59 9.842-3.59 3.901 0 7.093 1.196 9.576 3.59 2.571 2.305 3.857 5.231 3.857 8.778 0 3.458-1.286 6.384-3.857 8.778-2.483 2.305-5.675 3.458-9.576 3.458zm11.305 7.714v74.214h-22.743v-74.214zm65.691-.798c8.689 0 15.605 2.838 20.748 8.512 5.231 5.586 7.847 13.3 7.847 23.142v43.358h-22.61v-40.299c0-4.965-1.286-8.822-3.857-11.57-2.571-2.75-6.029-4.124-10.374-4.124s-7.803 1.374-10.374 4.123-3.857 6.606-3.857 11.571v40.299h-22.743v-74.214h22.743v9.842c2.305-3.28 5.409-5.852 9.31-7.714 3.901-1.95 8.29-2.926 13.167-2.926zm43.867 37.772c0-7.625 1.419-14.32 4.256-20.083 2.926-5.763 6.872-10.197 11.837-13.3 4.966-3.103 10.507-4.655 16.625-4.655 4.877 0 9.31 1.02 13.3 3.06 4.079 2.038 7.271 4.787 9.576 8.245v-34.447h22.743v98.42h-22.743v-10.64c-2.128 3.547-5.187 6.384-9.177 8.512-3.901 2.128-8.467 3.192-13.699 3.192-6.118 0-11.659-1.552-16.625-4.655-4.965-3.192-8.911-7.67-11.837-13.433-2.837-5.852-4.256-12.59-4.256-20.216zm55.594.133c0-5.674-1.596-10.152-4.788-13.433-3.103-3.28-6.916-4.92-11.438-4.92s-8.379 1.64-11.571 4.92c-3.103 3.192-4.655 7.625-4.655 13.3s1.552 10.197 4.655 13.566c3.192 3.281 7.049 4.921 11.571 4.921s8.335-1.64 11.438-4.921c3.192-3.281 4.788-7.758 4.788-13.433zm133.482 20.615h-34.846l-5.586 16.492h-23.807l33.782-93.366h26.334l33.782 93.366h-24.073zm-5.852-17.556-11.571-34.18-11.438 34.18zm72.526-59.318v93.366h-22.743v-93.366z" fill="url(#c)"/></svg>
